src/images/features/powerful.svg

<?xml version="1.0" encoding="UTF-8"?>
<svg width="60px" height="27px" viewBox="0 0 60 27" version="1.1" xmlns="http://www.w3.org/2000/svg" xmlns:xlink="http://www.w3.org/1999/xlink">
    <!-- Generator: Sketch 43.2 (39069) - http://www.bohemiancoding.com/sketch -->
    <title>Untitled 12</title>
    <desc>Created with Sketch.</desc>
    <defs></defs>
    <g id="Page-1" stroke="none" stroke-width="1" fill="none" fill-rule="evenodd">
        <path d="M11.138,23.316 C11.414,23.316 11.69,23.247 11.897,23.04 C12.311,22.626 12.311,22.005 11.897,21.591 L3.962,13.587 L11.897,5.652 C12.311,5.238 12.311,4.617 11.897,4.203 C11.483,3.789 10.862,3.789 10.448,4.203 L0.995,13.587 L10.379,22.971 C10.586,23.178 10.862,23.316 11.138,23.316 Z" id="Shape" fill="#000000" fill-rule="nonzero"></path>
        <path d="M35.727,26.421 C35.865,26.421 35.934,26.49 36.072,26.49 C36.486,26.49 36.9,26.214 37.038,25.8 L44.628,2.064 C44.835,1.512 44.49,0.96 43.938,0.753 C43.386,0.546 42.834,0.891 42.627,1.443 L35.037,25.179 C34.899,25.662 35.175,26.283 35.727,26.421 Z" id="Shape" fill="#000000" fill-rule="nonzero"></path>
        <path d="M48.837,22.971 C49.044,23.178 49.32,23.247 49.596,23.247 C49.872,23.247 50.148,23.178 50.355,22.971 L59.67,13.587 L50.286,4.203 C49.872,3.789 49.251,3.789 48.837,4.203 C48.423,4.617 48.423,5.238 48.837,5.652 L56.772,13.587 L48.837,21.522 C48.423,21.936 48.423,22.626 48.837,22.971 Z" id="Shape" fill="#000000" fill-rule="nonzero"></path>
        <g id="noun_Heart_771499" transform="translate(14.000000, 5.000000)" fill-rule="nonzero" fill="#000000">
            <path d="M5.74491223,0.0911205 C4.35148406,0.0911205 2.95499663,0.6274053 1.89601913,1.702683 C-0.221828542,3.8532573 -0.219091542,7.3385145 1.89601913,9.4904874 L9.92087656,17.6664114 C10.0722548,17.8215055 10.2792304,17.9088736 10.4952709,17.9088736 C10.7113114,17.9088736 10.9182869,17.8215055 11.0696652,17.6664114 C13.7484369,14.9463504 16.4241496,12.2274234 19.1028944,9.5073624 C21.2208226,7.3567935 21.2208226,3.8616867 19.1028944,1.7111205 C16.9849931,-0.4394484 13.5313821,-0.4394727 11.4134539,1.7111205 L10.4994569,2.630808 L9.58545989,1.702683 C8.52648239,0.6273999 7.13836723,0.0911205 5.74491223,0.0911205 L5.74491223,0.0911205 Z M5.74491223,1.6942455 C6.71861339,1.6942455 7.69016789,2.0752452 8.44504323,2.8417455 L9.92924856,4.3604955 C10.0806268,4.51558956 10.2876024,4.60295766 10.5036429,4.60295766 C10.7196834,4.60295766 10.9266589,4.51558956 11.0780372,4.3604955 L12.5538706,2.8586205 C14.0636212,1.3255983 16.4527807,1.3256226 17.9624777,2.8586205 C19.4722016,4.3916211 19.4722016,6.8268645 17.9624777,8.3598705 C15.4755644,10.8851454 12.9863971,13.4199054 10.4994569,15.9451614 L3.03643606,8.3514465 C1.52759746,6.8162805 1.52679246,4.374738 3.03643606,2.8417455 C3.79131139,2.0752398 4.77123789,1.6942455 5.74491223,1.6942455 L5.74491223,1.6942455 Z" id="Shape"></path>
        </g>
    </g>
</svg>

<?xml version="1.0" encoding="UTF-8"?>
<svg version="1.1" viewBox="0 0 60 27" xmlns="http://www.w3.org/2000/svg">
<g>
<path d="m11.138 23.316c0.276 0 0.552-0.069 0.759-0.276 0.414-0.414 0.414-1.035 0-1.449l-7.935-8.004 7.935-7.935c0.414-0.414 0.414-1.035 0-1.449s-1.035-0.414-1.449 0l-9.453 9.384 9.384 9.384c0.207 0.207 0.483 0.345 0.759 0.345z"/>
<path d="m35.727 26.421c0.138 0 0.207 0.069 0.345 0.069 0.414 0 0.828-0.276 0.966-0.69l7.59-23.736c0.207-0.552-0.138-1.104-0.69-1.311s-1.104 0.138-1.311 0.69l-7.59 23.736c-0.138 0.483 0.138 1.104 0.69 1.242z"/>
<path d="m48.837 22.971c0.207 0.207 0.483 0.276 0.759 0.276s0.552-0.069 0.759-0.276l9.315-9.384-9.384-9.384c-0.414-0.414-1.035-0.414-1.449 0s-0.414 1.035 0 1.449l7.935 7.935-7.935 7.935c-0.414 0.414-0.414 1.104 0 1.449z"/>
<g transform="translate(14 5)">
<path d="m5.7449 0.09112c-1.3934 0-2.7899 0.53628-3.8489 1.6116-2.1178 2.1506-2.1151 5.6358 0 7.7878l8.0249 8.1759c0.15138 0.15509 0.35835 0.24246 0.57439 0.24246s0.42302-0.087368 0.57439-0.24246c2.6788-2.7201 5.3545-5.439 8.0332-8.159 2.1179-2.1506 2.1179-5.6457 0-7.7962-2.1179-2.1506-5.5715-2.1506-7.6894 0l-0.914 0.91969-0.914-0.92812c-1.059-1.0753-2.4471-1.6116-3.8405-1.6116zm0 1.6031c0.9737 0 1.9453 0.381 2.7001 1.1475l1.4842 1.5188c0.15138 0.15509 0.35835 0.24246 0.57439 0.24246s0.42302-0.087368 0.57439-0.24246l1.4758-1.5019c1.5098-1.533 3.8989-1.533 5.4086 0 1.5097 1.533 1.5097 3.9682 0 5.5012-2.4869 2.5253-4.9761 5.06-7.463 7.5853l-7.463-7.5937c-1.5088-1.5352-1.5096-3.9767 0-5.5097 0.75488-0.76651 1.7348-1.1475 2.7085-1.1475z"/>
</g>
</g>
</svg>
